!!!OTL:Verschwiegene Liebe.
!!!OTL-incipit:SOLL ICH DENN IN MEINEN SCHMERZEN
!!!COM: H. Langer
!!!ARE: Europa, Mitteleuropa, Deutschland, Franken
!!!SCT: F0188A
!!!YEM: Copyright 1995, estate of Helmut Schaffrath.
**kern	**text
*ICvox	*
*M3/4	*
*k[b-e-a-]	*
*E-:	*
!LO:TX:a:t=Andante.	!
!LO:TX:a:t=Ges. v. H. Langer	!
!LO:TX:a:t=fränkisches Volkslied	!
{8b-	1._Soll
8b-	ich
=1	=1
4.ee-	denn
8dd	in
8cc	mei-
8b-	-nen
=2	=2
(8b-L	Schmer-
8a-J)	.
4a-}	-ʒen
{8a-	äu-
8a-	-ßer-
=3	=3
(8g/L	-lich
8b-	.
8ee-J)	.
8g	noch
8a-	fröh-
8f	-lich
=4	=4
(4f	ſein?
4e-)}	.
{8b-	mit
8b-	dir
=5	=5
4.ee-	re-
8dd	-den,
8cc	la-
8b-	-chen,
=6	=6
(8b-L	ſcher-
8a-J)	.
4a-}	-ʒen,
{8a-	und
8a-	doch
=7	=7
(8g/L	lei-
8b-	.
8ee-J)	.
8g	-den
8a-	gro-
8f	-ße
=8	=8
(4f	Pein?
4e-)}	.
{8g	Jch
8g	muß
=9	=9
8b-L	mich
8a-J	.
4f	ohn'
8dd	Lind'rung
8dd	.
=10	=10
8ffL	tren-
8ee-J	.
4dd}	-nen,
{8g	den
8g	ich
=11	=11
8b-L	lie-
8a-J	.
4f	-be,
8dd	darf
8dd	nicht
=12	=12
8.ffL	nen-
16ee-J	.
8ddL	-nen;
8ccJ}	.
{8b-	denn
8b-	mein
=13	=13
4.ee-^	har-
8dd	-tes
8cc	Schickſal
8b-	.
=14	=14
(8b-L	1-3._ſpricht:
8gJ	.
4a-)}	.
{8a-^^	lie-
8a-^^;	-be,
=15	=15
(8g/L	a-
8b-	.
8ee-J)	.
8g	-ber
8a-	re-
8f	-de
=16	=16
(4f	nicht!
8e-)	.
8r}	.
==	==
!!!AGN: Liebes - Lied, Leid
!!!ONB: ESAC (Essen Associative Code) Database: FINK
!!!AMT: simple triple
!!!AIN: vox
!!!EED: Helmut Schaffrath
!!!EEV: 1.0
!!Text: Fraenkisches Volkslied
!!!source: Musikalischer Hausschatz der Deutschen. Eine Sammlung von über 1000 Liedern und Gesängen mit Singstimmen und Klavierbegleitung. Leipzig, Litterarisches Verlags-Haus.
!!!page: 111
!!!ENC: Anna Maria Matuszewska
!!!EEV: 2025/03/11
*-	*-
